svg/alphanum/n-square.svg

<svg width="448" height="512" viewBox="0 0 448 512" version="1.1" xmlns="http://www.w3.org/2000/svg"><path fill="currentColor" d="M400,32c26.555,0.045 48,21.518 48,48l0,352c0,26.51 -21.49,48 -48,48l-352,0c-26.51,0 -48,-21.49 -48,-48l0,-352c0,-26.482 21.445,-47.955 48,-48l352,0Zm-255,96l-33,0c-8.885,0.048 -16,7.193 -16,16l0,224c0,8.837 7.163,16 16,16l32,0c8.837,0 16,-7.163 16,-16l0,-144l117.953,145.42c2.032,2.716 3.775,4.896 5.227,6.54c1.452,1.644 4.029,3.395 7.731,5.253c3.702,1.858 7.443,2.787 12.089,2.787l33,0c8.837,0 16,-7.163 16,-16l0,-224c0,-8.807 -7.115,-15.952 -16,-16l-32,0c-8.885,0.048 -16,7.193 -16,16l0,144c-13.533,-16.685 -18.081,-22.291 -22.625,-27.901c-9.142,-11.286 -18.27,-22.584 -100.555,-124.166c-1.597,-1.715 -4.21,-3.466 -7.84,-5.253c-3.608,-1.776 -7.29,-2.669 -11.98,-2.68Z"></path></svg>

<svg width="448" height="512" viewBox="0 0 448 512" fill="none" xmlns="http://www.w3.org/2000/svg">
<path fill-rule="evenodd" clip-rule="evenodd" d="M48 32C21.4903 32 0 53.4903 0 80V432C0 458.51 21.4903 480 48 480H400C426.51 480 448 458.51 448 432V80C448 53.4903 426.51 32 400 32H48ZM304 128C295.163 128 288 135.163 288 144V288C274.467 271.315 269.919 265.709 265.375 260.099C256.233 248.813 247.105 237.515 164.82 135.933C163.223 134.218 160.61 132.467 156.98 130.68C153.35 128.893 149.646 128 145 128H112C103.163 128 96 135.163 96 144V368C96 376.837 103.163 384 112 384H144C152.837 384 160 376.837 160 368V224L277.953 369.42C279.985 372.136 281.728 374.316 283.18 375.96C284.632 377.604 287.209 379.355 290.911 381.213C294.613 383.071 298.354 384 303 384H336C344.837 384 352 376.837 352 368V144C352 135.163 344.837 128 336 128H304Z" fill="black"/>
</svg>
